client_build/images/cards/socketio.svg

<svg xmlns="http://www.w3.org/2000/svg" width="43" height="43" viewBox="0 0 43 43"><g fill="none" fill-rule="evenodd"><g><path d="M16.2 1.24C21.62-.15 27.61.66 32.39 3.61c6.02 3.6 9.95 10.41 10.05 17.42.22 7.08-3.47 14.1-9.4 17.95-6.6 4.44-15.73 4.61-22.47.39C3.7 35.27-.31 27 .72 19.06 1.55 10.67 8.03 3.27 16.2 1.24z" id="Shape" fill="#FFF"/><path d="M15.37 4.67c10.24-4.1 22.8 3.47 23.86 14.45 1.65 9.88-6.55 19.92-16.56 20.21-9.52.95-18.72-7.12-18.99-16.68-.71-7.74 4.39-15.42 11.69-17.98z" id="Shape" fill="#df7065"/><path d="M16.4 20.44c4.59-3.75 9.08-7.63 13.77-11.27-2.46 3.78-4.99 7.51-7.45 11.29-2.11.01-4.22.01-6.32-.02zM20.28 22.53c2.12 0 4.23 0 6.34.03-4.62 3.73-9.09 7.64-13.79 11.27 2.46-3.78 4.99-7.52 7.45-11.3z" fill="#FFF"/></g></g></svg>

<svg xmlns="http://www.w3.org/2000/svg" xmlns:xlink="http://www.w3.org/1999/xlink" xmlns:sketch="http://www.bohemiancoding.com/sketch/ns" width="43px" height="43px" viewBox="0 0 43 43" version="1.1">
    <g id="Page-1" stroke="none" stroke-width="1" fill="none" fill-rule="evenodd" sketch:type="MSPage">
        <g id="logo" sketch:type="MSLayerGroup">
            <path d="M16.2,1.24 C21.62,-0.15 27.61,0.66 32.39,3.61 C38.41,7.21 42.34,14.02 42.44,21.03 C42.66,28.11 38.97,35.13 33.04,38.98 C26.44,43.42 17.31,43.59 10.57,39.37 C3.7,35.27 -0.31,27 0.72,19.06 C1.55,10.67 8.03,3.27 16.2,1.24 L16.2,1.24 Z" id="Shape" fill="#FFF" sketch:type="MSShapeGroup"/>
            <path d="M15.37,4.67 C25.61,0.57 38.17,8.14 39.23,19.12 C40.88,29 32.68,39.04 22.67,39.33 C13.15,40.28 3.95,32.21 3.68,22.65 C2.97,14.91 8.07,7.23 15.37,4.67 L15.37,4.67 Z" id="Shape" fill="rgb(223, 112, 101)" sketch:type="MSShapeGroup"/>
            <path d="M16.4,20.44 C20.99,16.69 25.48,12.81 30.17,9.17 C27.71,12.95 25.18,16.68 22.72,20.46 C20.61,20.47 18.5,20.47 16.4,20.44 L16.4,20.44 Z" id="Shape" fill="#FFF" sketch:type="MSShapeGroup"/>
            <path d="M20.28,22.53 C22.4,22.53 24.51,22.53 26.62,22.56 C22,26.29 17.53,30.2 12.83,33.83 C15.29,30.05 17.82,26.31 20.28,22.53 L20.28,22.53 Z" id="Shape" fill="#FFF" sketch:type="MSShapeGroup"/>
        </g>
    </g>
</svg>
